!!!SOCIAL_FUNCTION:	songs of social dance
!!!PDT:	1936
!!!OTL: No_62_Song_of_Owl_Dance_(a).krn
!!!REG: Oklahoma and Montana
!!!LANG: Tone
!!!LING_GROUP: Algonquin
**kern	**kern
*staff2	*staff1
=1-	=1-
*clefF4	*clefF4
*k[f#]	*k[f#]
*M2/4	*M2/4
12GG/	8.e\L
12r	.
12GG/	.
.	16B\Jk
12GG/	8.B\L
12r	.
12GG/	.
.	16e\Jk
=2	=2
2r	2e\
=3	=3
*M3/4	*M3/4
2.r	8e\L
.	16B\L
.	16B\JJ
.	8G\L
.	8G\J
.	8G\L
.	16G\Jk
.	16r
=4	=4
*M2/4	*M2/4
2r	8.e\L
.	16B\Jk
.	8B\L
.	8B\J
=5	=5
2r	4B\
.	12A\L
.	12A\
.	12G\J
=6	=6
*M3/4	*M3/4
2.r	8E\L
.	8E\J
.	8E\
.	8r
.	8.E\L
.	16E\Jk
=7	=7
2.r	8G\L
.	8G\J
.	4G\
.	8E\
.	8r
=8	=8
*M2/4	*M2/4
2r	16G\LK
.	8E\
.	16E\Jk
.	8.BB/L
.	16C/Jk
=9	=9
*M3/4	*M3/4
2.r	4BB/
.	8BB/
.	8r
.	8.E\L
.	16E\Jk
=10!|:	=10!|:
*M4/4	*M4/4
1r	8G\L
.	8G\J
.	4G\
.	8E\
.	8r
.	16G\LK
.	8G\
.	16E\Jk
=11	=11
*M2/4	*M2/4
2r	4E\
.	8E\
.	8r
=12	=12
2r	8BB/L
.	8E/J
.	4E\
=13	=13
2r	8BB/L
.	8E/J
.	4E\
=14	=14
*M3/4	*M3/4
2.r	4E\
.	4r
.	12B\L
.	12B\
.	12A\J
=15	=15
2.r	8G\L
.	8G\J
.	8G\
.	8r
.	8.B\L
.	16d\Jk
=16	=16
2.r	8B\L
.	8B\J
.	4B\
.	12A\L
.	12A\
.	12G\J
=17	=17
2.r	8E\L
.	8E\J
.	8E\
.	8r
.	8.E\L
.	16E\Jk
=18	=18
*M4/4	*M4/4
1r	8G\L
.	8G\J
.	4G\
.	8E\
.	8r
.	16G\LK
.	8G\
.	16E\Jk
=19	=19
*M3/4	*M3/4
2.r	8BB/L
.	8BB/J
.	8BB/
.	8r
.	8.E\L
.	16E\Jk
=20	=20
*M4/4	*M4/4
1r	8G\L
.	8G\J
.	4G\
.	8E\
.	8r
.	16G\LK
.	8G\
.	16E\Jk
=21	=21
*M2/4	*M2/4
2r	4E\
.	8E\
.	8r
=22	=22
2r	8BB/L
.	8E/J
.	4E\
=23	=23
2r	8BB/L
.	8E/J
.	4E\
=24	=24
2r	4E\
.	4r
==:|!	==:|!
*-	*-
